packages/core/src/svgs/tokens/branded/PROB.svg

<svg width="24" height="24" viewBox="0 0 24 24" fill="none" xmlns="http://www.w3.org/2000/svg">
<path d="M14.1 7.80608L12.4334 6.86166C12.1556 6.70611 11.7057 6.70611 11.4335 6.86166L9.76134 7.80608C9.40019 8.01162 9.40019 8.34494 9.76134 8.55049L11.4279 9.51156C11.7057 9.66711 12.1501 9.66711 12.4279 9.51156L14.0944 8.55049C14.4556 8.34494 14.4556 8.01162 14.0944 7.80608H14.1Z" fill="#4231C8"/>
<path d="M20.3887 6.63388L12.4945 2.11738C12.3412 2.0402 12.1719 2 12.0001 2C11.8284 2 11.6591 2.0402 11.5057 2.11738L3.606 6.63388C3.32823 6.78943 3.11157 7.17274 3.11157 7.48384V16.5169C3.11157 16.828 3.33379 17.2113 3.606 17.3668L11.5057 21.8833C11.7835 22.0389 12.2223 22.0389 12.4945 21.8833L20.3942 17.3668C20.672 17.2113 20.8886 16.828 20.8886 16.5169V7.48384C20.8886 7.17274 20.6665 6.78943 20.3942 6.63388H20.3887ZM16.8722 8.7338L12.3723 11.3614C12.1056 11.5226 11.6613 11.5226 11.3947 11.3614L8.71693 9.61149C8.36138 9.406 8.10584 9.57261 8.10584 9.9782V15.0168C8.10584 15.4169 7.77807 15.5947 7.42253 15.4057L6.93921 15.1502C6.66144 15.0003 6.43922 14.628 6.43922 14.3169V8.8338C6.43922 8.5227 6.65033 8.14493 6.92254 7.98938L11.3947 5.38948C11.547 5.31236 11.7155 5.27216 11.8862 5.27216C12.057 5.27216 12.2255 5.31236 12.3779 5.38948L16.8722 7.98938C17.2278 8.18938 17.2278 8.52826 16.8722 8.7338Z" fill="#4231C8"/>
</svg>

<svg xmlns="http://www.w3.org/2000/svg" width="24" height="24" fill="none" viewBox="0 0 24 24">
    <path fill="#4231C8" d="m14.1 7.806-1.667-.944c-.277-.156-.727-.156-1 0l-1.672.944c-.36.206-.36.539 0 .744l1.667.962a1.13 1.13 0 0 0 1 0l1.666-.962c.362-.205.362-.538 0-.744z"/>
    <path fill="#4231C8" d="m20.389 6.634-7.894-4.517a1.1 1.1 0 0 0-.99 0L3.607 6.634c-.278.155-.494.539-.494.85v9.033c0 .311.222.694.494.85l7.9 4.516c.277.156.716.156.989 0l7.9-4.516c.277-.156.494-.539.494-.85V7.484c0-.311-.223-.695-.495-.85zm-3.517 2.1-4.5 2.627c-.266.162-.71.162-.977 0l-2.678-1.75c-.356-.205-.611-.038-.611.367v5.039c0 .4-.328.578-.683.389l-.484-.256c-.278-.15-.5-.522-.5-.833V8.834c0-.311.211-.69.484-.845l4.472-2.6a1.09 1.09 0 0 1 .983 0l4.494 2.6c.356.2.356.54 0 .745"/>
</svg>
